X:722
T:Leslie's Hornpipe
T:Tune 2 of The Three Tunes ( Set Dance )
M:C
L:1/8
K:D
A|"D"d2 d2 d2 cd|"A"e2 e2 e2 fe|"G"dc BA "A"B2 c2|"D"de fg ag fe|
d2 d2 d2 cd|"A"e2 e2 e2 fe|"G"dc BA "A"B2 c2|"D"d4 d2:|
|:A|"D"f2 f2 f2 ef|"G"g2 g2 g2 fg|"A"e2 e2 e2 de|"D"f2 f2 fg af|
"D"d2 d2 d2 cd|"A"e2 e2 e2 fe|"G"dc BA "A"B2 c2|"D"d4 d2:|
